!!!COM: Corelli, Arcangelo
!!!OTL: 
!!!ONM: Opus 5, No. 1
!!!OMV: 4
!!!CDT: 1653/2/17/-1713/1/8/
!!!OCY: Italia
**kern	**kern	**kern
*clefC	*clefG	*clefG
*k[f#c#]	*k[f#c#]	*k[f#c#]
*D:	*D:	*D:
*M6/8	*M6/8	*M6/8
=1	=1	=1
2.r	2.r	8r
.	.	8ff#
.	.	8ff#
.	.	8gg
.	.	8aa
.	.	8aa
=2	=2	=2
2.r	2r	8dd
.	.	16bb
.	.	16aa
.	.	16gg
.	.	16ff#
.	.	8ee
.	8cc#	8aa
.	8cc#	8aa
=3	=3	=3
2.r	8dd	8aa
.	8ee	8gg#
.	8ee	8gg#
.	8a	8cc#
.	4r	16ff#
.	.	16ee
.	.	16dd
.	.	16cc#
=4	=4	=4
2r	8g	8b
.	8g	8ee
.	8g	8ee
.	8f#	8a
8F#	8f#	8dd
8F#	8f#	8dd
=5	=5	=5
8G	8e	8dd
8A	4e	4cc#
8A	.	.
8D	8f#	8dd
16B	8dd	8ff#
16A	.	.
16G	8dd	8ff#
16F#	.	.
=6	=6	=6
8E	8dd	8gg#
8C#	8cc#	8aa
8C#	8a	8aa
8D	8b	8aa
8E	4b	4gg#
8E	.	.
=7	=7	=7
8AA	8a	8aa
4.A	4.r	16ff#
.	.	16ee
.	.	16dd
.	.	16cc#
.	.	8b
[4G	8b	8ee
.	8b	8ee
=8	=8	=8
8G]	8a	8cc#
8F#	8f#	8dd
8B	8f#	8dd
8E	8g	8dd
8A	8a	8cc#
8AA	8a	8cc#
=9	=9	=9
8r	8d	8f#
4.d	2r	16b
.	.	16a
.	.	16g
.	.	16f#
.	.	8e
[4c#	.	16a
.	.	16g
.	8r	16f#
.	.	16e
=10	=10	=10
8c#]	8r	8d
8B	8f#	8dd
8A	8f#	8dd
8G#	8e	8dd
8A	8e	8cc#
8AA	8e	8cc#
=11	=11	=11
4D	8d	8cc#
.	8f#	8b
8D	8f#	8dd
4E	8g#	8b
.	8g#	8ee
8C#	8e	8ee
=12	=12	=12
4D	8f#	8ee
.	8f#	16dd
.	.	16cc#
8D	8f#	8dd
8E	8g#	8dd
8c#	8c#	8a
8c#	8c#	8a
=13	=13	=13
8d	8B	8a
8e	4B	4g#
8e	.	.
8A	8A	8a
16f#	[4a	4a
16e	.	.
16d	.	.
16c#	.	.
=14	=14	=14
8B	8a]	8b
8e	4.g	4b
8e	.	.
8A	.	8cc#
8F#	4f#	[4dd
8F#	.	.
=15	=15	=15
8G	8e	8dd]
8A	4e	4cc#
8A	.	.
8D	8f#	8dd
16G	4r	[4b
16F#	.	.
16E	.	.
16D	.	.
=16	=16	=16
8C#	8c# 8e	8b]
8F#	4r	4.a
8F#	.	.
8BB	8B 8d	.
16E	4r	4g
16D	.	.
16C#	.	.
16BB	.	.
=17	=17	=17
4AA	4c#	4g
8D	4d	4f#
8GG	.	.
4AA	4A	4e
=18	=18	=18
8D	2.r	16d
.	.	16dd
4.d	.	16ff#
.	.	16aa
.	.	16ff#
.	.	16dd
.	.	16ee
.	.	16gg
4c#	.	16ee
.	.	16cc#
.	.	16a
.	.	16aa
=19	=19	=19
8r	2.r	16ff#
.	.	16aa
8F#	.	16ddd
.	.	16ccc#
8F#	.	16ddd
.	.	16ff#
8G	.	16ee
.	.	16ddd
8A	.	16ccc#
.	.	16bb
8A	.	16ccc#
.	.	16ee
=20	=20	=20
8D	2.r	16dd
.	.	16a
4.A	.	16cc#
.	.	16ee
.	.	16cc#
.	.	16a
.	.	16b
.	.	16dd
4G#	.	16b
.	.	16g#
.	.	16e
.	.	16ee
=21	=21	=21
8r	2.r	16cc#
.	.	16ee
8C#	.	16aa
.	.	16gg#
8C#	.	16aa
.	.	16cc#
8D	.	16b
.	.	16aa
8E	.	16gg#
.	.	16ff#
8E	.	16gg#
.	.	16b
=22	=22	=22
8AA	2.r	16a
.	.	16ee
4.A	.	16aa
.	.	16bb
.	.	16ccc#
.	.	16aa
.	.	16bb
.	.	16aa
4G	.	16bb
.	.	16ccc#
.	.	16ddd
.	.	16bb
=23	=23	=23
8r	2.r	16ccc#
.	.	16a
8FF#	.	16dd
.	.	16cc#
8FF#	.	16dd
.	.	16f#
8GG	.	16e
.	.	16dd
8AA	.	16cc#
.	.	16b
8AA	.	16cc#
.	.	16e
=24	=24	=24
4DD	2.r	16d
.	.	16aa
.	.	16ddd
.	.	16ff#
8D	.	16ee
.	.	16dd
4A	.	16ee
.	.	16ddd
.	.	16ccc#
.	.	16bb
8A#	.	16ccc#
.	.	16ee
=25	=25	=25
4B	2.r	16dd
.	.	16ccc#
.	.	16bb
.	.	16aa#
8D	.	16bb
.	.	16dd
8C#	.	16ee
.	.	16bb
4F#	.	16aa#
.	.	16bb
.	.	16ff#
.	.	16aa#
=26	=26	=26
8BB	2.r	16bb
.	.	16ff#
8B	.	16dd
.	.	16ff#
8A#	.	16cc#
.	.	16ff#
8B	.	16dd
.	.	16ff#
8D	.	16dd
.	.	16ff#
8F#	.	16cc#
.	.	16ff#
=27	=27	=27
8BB	2.r	16dd
.	.	16ee
8A	.	16cc#
.	.	16ee
8G#	.	16b
.	.	16ee
8A	.	16cc#
.	.	16ee
8C#	.	16cc#
.	.	16ee
8E	.	16b
.	.	16ee
=28	=28	=28
8AA	2.r	16cc#
.	.	16cc#
8F#	.	16a
.	.	16cc#
8E#	.	16g#
.	.	16cc#
8F#	.	16a
.	.	16cc#
8AA	.	16a
.	.	16cc#
8C#	.	16g#
.	.	16cc#
=29	=29	=29
8FF#	2.r	16a
.	.	16cc#
8F#	.	16a
.	.	16cc#
8E	.	16g#
.	.	16cc#
4D	.	16f#
.	.	16b
.	.	16f#
.	.	16b
8BB	.	16f#
.	.	16b
=30	=30	=30
4C#	4c#	4b 4e#
8F#	4c#	4a 4f#
8BB	.	.
4C#	4r	8.f#
.	.	16e#
=31	=31	=31
8F#	2.r	16f#
.	.	16cc#
8f#	.	16a
.	.	16cc#
8e#	.	16g#
.	.	16cc#
8f#	.	16a
.	.	16cc#
8A	.	16a
.	.	16cc#
8c#	.	16g#
.	.	16cc#
=32	=32	=32
8F#	2.r	16a
.	.	16ff#
8B	.	16dd
.	.	16ff#
8A#	.	16cc#
.	.	16ff#
8B	.	16dd
.	.	16ff#
8D	.	16dd
.	.	16ff#
8F#	.	16cc#
.	.	16ff#
=33	=33	=33
8BB	2.r	16dd
.	.	16b
8e	.	16g#
.	.	16b
8d#	.	16f#
.	.	16b
8e	.	16g#
.	.	16b
8G#	.	16g#
.	.	16b
8B	.	16f#
.	.	16b
=34	=34	=34
8E	2.r	16g#
.	.	16ee
8A	.	16cc#
.	.	16ee
8G#	.	16b
.	.	16ee
8A	.	16cc#
.	.	16ee
8C#	.	16cc#
.	.	16ee
8E	.	16b
.	.	16ee
=35	=35	=35
8AA	2.r	16cc#
.	.	16a
8d	.	16f#
.	.	16a
8c#	.	16e
.	.	16a
8d	.	16f#
.	.	16a
8F#	.	16f#
.	.	16a
8A	.	16e
.	.	16a
=36	=36	=36
4.D	2.r	16f#
.	.	16d
.	.	16f#
.	.	16b
.	.	16f#
.	.	16b
4.E	.	16g#
.	.	16e
.	.	16g#
.	.	16cc#
.	.	16g#
.	.	16cc#
=37	=37	=37
4.F#	2.r	16a
.	.	16f#
.	.	16a
.	.	16dd
.	.	16a
.	.	16dd
4.G#	.	16b
.	.	16g#
.	.	16b
.	.	16ee
.	.	16b
.	.	16ee
=38	=38	=38
4.AA	2.r	16cc#
.	.	16a
.	.	16cc#
.	.	16ff#
.	.	16cc#
.	.	16ff#
4.BB	.	16dd
.	.	16b
.	.	16dd
.	.	16gg#
.	.	16ff#
.	.	16gg#
=39	=39	=39
4.C#	2.r	16ee
.	.	16cc#
.	.	16ee
.	.	16aa
.	.	16ee
.	.	16aa
4.D	.	16ff#
.	.	16dd
.	.	16ff#
.	.	16bb
.	.	16ff#
.	.	16bb
=40	=40	=40
4E	2r	16gg#
.	.	16ee
.	.	16ff#
.	.	16gg#
8C#	.	16aa
.	.	16b
8D	.	16cc#
.	.	16d
8E	4e	4b
8EE	.	.
=41	=41	=41
8AA	2.r	8a
4.A	.	8c#
.	.	8c#
.	.	8d
[4G	.	8e
.	.	8e
=42	=42	=42
8G]	8A	8r
4F#	8a	8a
.	8a	8a
4.GG	8a	8b
.	8g	8b
.	8g	8b
=43	=43	=43
8AA	8g	8cc#
8F#	4f#	4.dd
8F#	.	.
8G	8e	.
8A	4e	4cc#
8A	.	.
=44	=44	=44
8D	8f#	8dd
16G	2r	4bb
16F#	.	.
16E	.	.
16D	.	.
8C#	.	8ee
8F#	.	16aa
.	.	16gg#
8F#	8r	8aa
=45	=45	=45
8BB	8r	8dd
16E	4dd	4gg
16D	.	.
16C#	.	.
16BB	.	.
4AA	4cc#	4gg
8D	[8dd	[8ff#
=46	=46	=46
8GG	8dd]	8ff#]
4AA	4a	4ee
8D	8f#	8dd
16G	4r	[4b
16F#	.	.
16E	.	.
16D	.	.
=47	=47	=47
8C#	8c# 8e	8b]
8F#	4r	4.a
8F#	.	.
8BB	8B 8d	.
16E	4r	4g
16D	.	.
16C#	.	.
16BB	.	.
=48	=48	=48
4AA	4A	4cc# 4g
8BB	4r	8dd
8GG	.	16d
.	.	16e
4AA	4A	4e
=49	=49	=49
4D	4d	4d
8GG	8d	8b
4AA	4c#	4e
8D	[8d	[8f#
=50	=50	=50
8GG	8d]	8f#]
4AA	4A	4e
4.DD	4.d	4.d
==	==	==
*-	*-	*-
!!!RWG: This file only contains pitch and duration data.
!!!RWG: Transposing instruments are not transposed.
!!!RWG: Durations of rests and tied notes may be interpreted.
!!!RWG: Key is interpreted using the Humdrum key tool.
!!!SCA: 
!!!YOR: 
!!!AGN: violin
!!!AFT: stage1
!!!ENC: F. Bennion
!!!END: 1997/04/15
!!!AST: baroque
!!!YEC: Copyright 1994, Center for Computer Assisted Research in the Humanities
!!!YEM: Rights to all derivative electronic formats reserved.
!!!YEM: Refer to licensing agreement for further details.
!!!YEN: United States of America
!!!EED: W.B. Hewlett
!!!KEY: 1546785353
!!!EMD: Converted from MuseData to Humdrum Aug 9, 1999, by Bret Aarden using muse2kern.
!!!VTS: 1584640157
